X: 40301
T: Tolka, The
R: polka
M: 2/4
K: Adorian
|:A>B cg|de cA|B/c/B/A/ Gd|A>B GE|
A>B cg|de cA|B/c/B/A/ Gd|1 BA e/d/c/B/:|2 BA A2||
|:d>e fa|ga fd|g/e/d/c/ Bd/c/|B/A/G B/A/G/B/|
A>B cg|de cA|B/c/B/A/ Gd|1 BA F/A/B/c/:|2 BA A2||
|:e>f gf|de e>f|gf/d/ f/a/g/e/|dc Bd-|
d/c/B cg|de cA|B/c/B/A/ Gd|1 BA A/B/c/d/:|2 BA e/d/c/B/|A8||

